static/assets/template/assets/img/icons/essential/detailed/Fire.svg

<svg height="128" viewBox="0 0 100 128" width="100" xmlns="http://www.w3.org/2000/svg"><g fill="none" fill-rule="evenodd" transform="translate(1 2)"><g fill-rule="nonzero"><path d="m91.6 49.3c-3.1-8.2-7.3-15.9-12.6-23.3-1.9-2.6-4-5.2-7.1-6.8 1.2 8.1.3 15.4-4.8 22-.3.3-.5.6-.8 1-.4-1.7-.8-3.4-1.3-5-2.4-7.6-6-14.3-10.7-20.4-5.8-7.5-12.8-13.4-21.7-16.8-.1.4-.1.6-.1.8 1.1 9.6-.5 18.7-5.1 27-4.4 8-9.3 15.8-14.4 23.4-6.5 9.7-11 20.1-12 31.8-1.1 12.5 1.6 23.6 11.1 32.2 1.8 1.6 3.7 3 5.8 4.3 2.9 1.7 6 3.1 9.3 4.1-.2-.4-.3-.6-.4-.8-5.7-6.4-7-13.9-5.3-22.2 1.6-7.6 5.1-14.2 9.3-20.4 3.9-5.8 7.5-11.8 8.5-19 .3-2.5.3-5.1.4-8 7.8 3.8 12.7 9.8 15.9 17.2 1.1 2.5 2.1 5.3 2.9 8.1.5-.6.9-1.2 1.3-1.8 2.1-3.6 2.3-7.6 1.8-12.1 4.9 4.1 8.5 8.7 11 13.9 1.7 3.4 2.9 7 3.8 10.9 3 13.5-1.3 24.6-10.6 34.2 2.2-1.1 4.4-2.1 6.6-3.3 2.1-1.2 4.1-2.5 5.9-3.8 11.8-8.7 18.3-20.9 18.6-36.9.1-10.7-1.8-20.8-5.3-30.3z"/><path d="m95.2 61.8c-.9-4.3-2.1-8.4-3.6-12.5-2.3-4.2-5-8.3-8.1-12.2-1.8-2.4-3.9-4.8-7.1-6.2 1.2 7.8.2 14.8-5.5 21.1-.9-3.8-2.2-7.3-3.8-10.7-.7-1.4-1.4-2.7-2.1-4-1.7-3-3.8-5.9-6-8.6-5.8-6.9-12.7-12.3-21.5-15.4-.1.4-.1.5-.1.7 1.1 8.8-.5 17.2-5.1 24.7-4.4 7.4-9.2 14.5-14.3 21.4-6.4 8.8-10.9 18.4-11.9 29.2-.5 4.8-.3 9.4.8 13.7 1.5 5.9 4.7 11.3 10.2 15.8.3.2.5.4.8.6 2.9 1.7 6 3.1 9.3 4.1-.2-.4-.3-.6-.4-.8-5.7-6.4-7-13.9-5.3-22.2 1.6-7.6 5.1-14.2 9.3-20.4 3-4.5 5.9-9.1 7.4-14.2.5-1.5.8-3.1 1-4.7.3-2.5.3-5.1.4-8 7.8 3.8 12.7 9.8 15.9 17.2 1.6 1.9 3 4 4.1 6.3 2.1-3.6 2.3-7.6 1.8-12.1 4.9 4.1 8.5 8.7 11 13.9 4.1 4.9 3.4 9.5 4.9 15.7.3 1.1.4 2.3.5 3.6.3 7.4-3.2 16.4-6.2 21.8 14.8-9.6 24.8-24 25.1-40 .2-6.1-.3-12.1-1.5-17.8z"/><path d="m26.9 71.4c4.8-2.3 8.5-4.1 11.3-5.5-1.6 5.2-4.4 9.8-7.4 14.2-4.2 6.3-7.8 12.9-9.3 20.4-1.7 8.3-.4 15.8 5.3 22.2.1.1.2.4.4.8-3.4-1-6.5-2.4-9.3-4.1-.3-.2-.5-.4-.8-.6-5.4-4.5-8.7-9.9-10.2-15.8-1.1-11 1.6-22.9 20-31.6z" fill="#bad8ff"/><path d="m96.8 79.6c-.3 16-10.3 30.4-25.1 40 3-5.4 6.4-14.4 6.2-21.8 8.2-9.6 14.6-20.4 17.3-36.1 1.2 5.8 1.7 11.8 1.6 17.9z" fill="#bad8ff"/></g><path d="m27.3 27.8c.1-.2.2-.3.3-.5m-6.9 79.9c0 5.7 1.9 11 6 15.6.1.1.2.3.4.8-5.7-1.7-10.8-4.4-15.1-8.3-9.5-8.6-12.2-19.7-11.1-32.2 1.1-11.8 5.5-22.2 12-31.8 3.1-4.5 6-9.2 8.9-13.9m44.5 4.8c5.8-6.8 6.8-14.5 5.6-23 3.2 1.6 5.3 4.1 7.1 6.8 11.3 15.9 18.2 33.6 17.8 53.6-.3 18.5-9 31.9-24.5 40.7-2.1 1.2-4.4 2.2-6.6 3.3 9.3-9.6 13.5-20.7 10.6-34.2-2.2-9.8-6.8-18.2-14.8-24.8.5 5.3.3 9.8-3.1 13.9-3.1-11.2-8.3-20.2-18.8-25.3-.1 2.8-.1 5.4-.4 8-.9 7.2-4.6 13.2-8.5 19-2.7 4.1-5.2 8.3-7 12.8m8-76.5c1.2-5.1 1.4-10.3.8-15.7 0-.2.1-.4.1-.8 8.9 3.4 15.9 9.2 21.7 16.8 4.2 5.5 7.6 11.4 9.9 18" stroke-linecap="round" stroke-linejoin="round" stroke-width="3"/></g></svg>

<?xml version="1.0" encoding="UTF-8"?>
<svg width="100px" height="128px" viewBox="0 0 100 128" version="1.1" xmlns="http://www.w3.org/2000/svg" xmlns:xlink="http://www.w3.org/1999/xlink">
    <!-- Generator: Sketch 51.2 (57519) - http://www.bohemiancoding.com/sketch -->
    <title>Fire</title>
    <desc>Created with Sketch.</desc>
    <defs></defs>
    <g id="Page-1" stroke="none" stroke-width="1" fill="none" fill-rule="evenodd">
        <g id="Fire" transform="translate(1.000000, 2.000000)">
            <path d="M91.6,49.3 C88.5,41.1 84.3,33.4 79,26 C77.1,23.4 75,20.8 71.9,19.2 C73.1,27.3 72.2,34.6 67.1,41.2 C67.1,41.2 67.1,41.2 67.1,41.2 C66.8,41.5 66.6,41.8 66.3,42.2 C65.9,40.5 65.5,38.8 65,37.2 C62.6,29.6 59,22.9 54.3,16.8 C48.5,9.3 41.5,3.4 32.6,1.13686838e-13 C32.5,0.4 32.5,0.6 32.5,0.8 C33.6,10.4 32,19.5 27.4,27.8 C23,35.8 18.1,43.6 13,51.2 C6.5,60.9 2,71.3 1,83 C-0.1,95.5 2.6,106.6 12.1,115.2 C13.9,116.8 15.8,118.2 17.9,119.5 C20.8,121.2 23.9,122.6 27.2,123.6 C27,123.2 26.9,123 26.8,122.8 C21.1,116.4 19.8,108.9 21.5,100.6 C23.1,93 26.6,86.4 30.8,80.2 C34.7,74.4 38.3,68.4 39.3,61.2 C39.6,58.7 39.6,56.1 39.7,53.2 C47.5,57 52.4,63 55.6,70.4 C56.7,72.9 57.7,75.7 58.5,78.5 C59,77.9 59.4,77.3 59.8,76.7 C61.9,73.1 62.1,69.1 61.6,64.6 C66.5,68.7 70.1,73.3 72.6,78.5 C74.3,81.9 75.5,85.5 76.4,89.4 C79.4,102.9 75.1,114 65.8,123.6 C68,122.5 70.2,121.5 72.4,120.3 C74.5,119.1 76.5,117.8 78.3,116.5 C90.1,107.8 96.6,95.6 96.9,79.6 C97,68.9 95.1,58.8 91.6,49.3 Z" id="Shape" class="fill-neutral" fill-rule="nonzero"></path>
            <path d="M95.2,61.8 C94.3,57.5 93.1,53.4 91.6,49.3 C89.3,45.1 86.6,41 83.5,37.1 C81.7,34.7 79.6,32.3 76.4,30.9 C77.6,38.7 76.6,45.7 70.9,52 C70,48.2 68.7,44.7 67.1,41.3 C67.1,41.3 67.1,41.3 67.1,41.3 C66.4,39.9 65.7,38.6 65,37.3 C63.3,34.3 61.2,31.4 59,28.7 C53.2,21.8 46.3,16.4 37.5,13.3 C37.4,13.7 37.4,13.8 37.4,14 C38.5,22.8 36.9,31.2 32.3,38.7 C27.9,46.1 23.1,53.2 18,60.1 C11.6,68.9 7.1,78.5 6.1,89.3 C5.6,94.1 5.8,98.7 6.9,103 C8.4,108.9 11.6,114.3 17.1,118.8 C17.4,119 17.6,119.2 17.9,119.4 C20.8,121.1 23.9,122.5 27.2,123.5 C27,123.1 26.9,122.9 26.8,122.7 C21.1,116.3 19.8,108.8 21.5,100.5 C23.1,92.9 26.6,86.3 30.8,80.1 C33.8,75.6 36.7,71 38.2,65.9 C38.7,64.4 39,62.8 39.2,61.2 C39.5,58.7 39.5,56.1 39.6,53.2 C47.4,57 52.3,63 55.5,70.4 C57.1,72.3 58.5,74.4 59.6,76.7 C61.7,73.1 61.9,69.1 61.4,64.6 C66.3,68.7 69.9,73.3 72.4,78.5 C76.5,83.4 75.8,88 77.3,94.2 C77.6,95.3 77.7,96.5 77.8,97.8 C78.1,105.2 74.6,114.2 71.6,119.6 C86.4,110 96.4,95.6 96.7,79.6 C96.9,73.5 96.4,67.5 95.2,61.8 Z" id="Shape" class="fill-primary-100" fill-rule="nonzero"></path>
            <path d="M26.9,71.4 C31.7,69.1 35.4,67.3 38.2,65.9 C36.6,71.1 33.8,75.7 30.8,80.1 C26.6,86.4 23,93 21.5,100.5 C19.8,108.8 21.1,116.3 26.8,122.7 C26.9,122.8 27,123.1 27.2,123.5 C23.8,122.5 20.7,121.1 17.9,119.4 C17.6,119.2 17.4,119 17.1,118.8 C11.7,114.3 8.4,108.9 6.9,103 C5.8,92 8.5,80.1 26.9,71.4 Z" id="Shape" fill="#BAD8FF" fill-rule="nonzero"></path>
            <path d="M96.8,79.6 C96.5,95.6 86.5,110 71.7,119.6 C74.7,114.2 78.1,105.2 77.9,97.8 C86.1,88.2 92.5,77.4 95.2,61.7 C96.4,67.5 96.9,73.5 96.8,79.6 Z" id="Shape" fill="#BAD8FF" fill-rule="nonzero"></path>
            <path d="M27.3,27.8 C27.4,27.6 27.5,27.5 27.6,27.3 M20.7,107.2 C20.7,112.9 22.6,118.2 26.7,122.8 C26.8,122.9 26.9,123.1 27.1,123.6 C21.4,121.9 16.3,119.2 12,115.3 C2.5,106.7 -0.2,95.6 0.9,83.1 C2,71.3 6.4,60.9 12.9,51.3 C16,46.8 18.9,42.1 21.8,37.4 M66.3,42.2 C72.1,35.4 73.1,27.7 71.9,19.2 C75.1,20.8 77.2,23.3 79,26 C90.3,41.9 97.2,59.6 96.8,79.6 C96.5,98.1 87.8,111.5 72.3,120.3 C70.2,121.5 67.9,122.5 65.7,123.6 C75,114 79.2,102.9 76.3,89.4 C74.1,79.6 69.5,71.2 61.5,64.6 C62,69.9 61.8,74.4 58.4,78.5 C55.3,67.3 50.1,58.3 39.6,53.2 C39.5,56 39.5,58.6 39.2,61.2 C38.3,68.4 34.6,74.4 30.7,80.2 C28,84.3 25.5,88.5 23.7,93 M31.7,16.5 C32.9,11.4 33.1,6.2 32.5,0.8 C32.5,0.6 32.6,0.4 32.6,0 C41.5,3.4 48.5,9.2 54.3,16.8 C58.5,22.3 61.9,28.2 64.2,34.8" id="Shape" class="stroke-primary" stroke-width="3" stroke-linecap="round" stroke-linejoin="round"></path>
        </g>
    </g>
</svg>
